X:1
T:Deutscher Tanz Nr. 3 aus KV 605
T:Deutscher Tanz
T:Wolfgang Amadeus Mozart eingerichtet von Carl Czerny
T:Nr. 3 aus KV 605
T:Gemeinfreiheit
T:Gemeinfreiheit
T:Gemeinfreiheit
C:Wolfgang Amadeus Mozart
Z:Gemeinfreiheit
%%score { ( 1 3 ) | ( 2 4 ) }
L:1/8
Q:1/4=120
M:3/4
K:C
V:1 treble nm="Piano" snm="Pno."
V:3 treble 
V:2 bass 
V:4 bass 
V:1
!ff! ([cc']2 [Gg]2) z2 | ([Gg]2 [Ee]2) z2 | ([Gg]2 .e).e.e.e | (e2 c2)!p! (!2!g!5!c') | %4
 (!4!c'bag)"_cresc." (!2!gc') | (!4!c'bag) (!2!gc') |!f! (!4!c'bagab | c'2) z2 z2 :: %8
!f! [dd']2 [dd']2 [dd']2 | (b2 g2) (gb) | .[dd'].[dd'].[dd'].[dd'].[dd'][dd'] | %11
 (b2 g2)!p! (!2!gc') | (!4!c'bag)"_cresc." (!2!gc') | (!4!c'bag) (!2!gc') |!f! (!4!c'bagab | %15
 c'2) z2 z2!dacoda! ::[K:F][M:3/4]!p!"^Trio („Die Schlittenfahrt“)" (!2!f4 af) | (!1!e2 g2 b2) | %18
 (!5!b4 ge) | (!2!f2 a2 c'2) | (!5!c'4 af) | (!1!e2 g2 b2) | (b4 ge) | f2 z2 z2 ::!p! (!1!f4 bd') | %25
 (!4!c'2 a2 f2) | (f4 bd') | (c'2 a2 f2) |!f! (!1!e4 ge) | (!2!f2 a2 c'2) |{ceg} (!5!b4 ge) | %31
 f2 z2 z2 :|[K:C][M:3/4]O!ff! C2 z2 z (3(!1!G,/A,/B,/ | .C2) .C2 .C2 | C2 z2 z (3(G,/A,/B,/ | %35
 .C2) .C2 .C2 | C2 z2 z (3(G,/A,/B,/ | C2) .!1!E2 .G2 | .c2 (!1!!2![ce]g) .[cgc']2 | %39
 .[dgb]2 z2 z (3(!2!d/e/^f/ | [Bdg]2) [Bdg]2 [Bdg]2 | [Bdg]2 z2 z (3(d/e/^f/ | %42
 [Bdg]2) [Bdg]2 [Bdg]2 | !4!gdBdgb | gdBdgb | g2!p! G2 G2 | G2 G2 G2 | [FG]2 [FG]2 [FG]2 | %48
 [FG]2 [FG]2 [FG]2 | (!3!c4 ec) | (!2!B2 d2 f2) | (!5!f4 dB) | (!3!c2 !4!e2 !5!g2) | (g4 ec) | %54
 (!2!B2 d2 f2) | (f4 dB) | [Ec]2 z2 z2 | (f4 ac') | (c'2 g2 e2) | (f4 ac') | (c'2 g2 e2) | %61
!f! [dgb]2 [dgb]2 [dgb]2 | [egc']2 [egc']2 [egc']2 | [fd']2 !1!!5![fd']!1!!4![ec'] !1!!3![db]2 | %64
 [ec']2!>(! z2 z2!>)! | (!2!f4 ac') | (c'2 g2 e2) | (f4 ac') | (c'2 g2 e2) | %69
!f! [dfgb]2 [dfgb]2 [dfgb]2 | [egc']2 [egc']2 [egc']2 | [fd']2 [fd'][ec'] [db]2 | %72
!ff! [cegc']2 !2!E2 !4!G2 | E2 C2 [Bdgb]2 | [cegc']2 E2 G2 | E2 C2 [Bdfgb]2 | [cegc']6 | [cegc']6 | %78
 [cegc']6 | [cegc']2 [cegc']2 [cegc']2 | [cegc']2 z2 !3!c>!2!c | !1!c4 c>c | (c6 | c'2) z2 z2 |] %84
V:2
 ([C,C]2 [G,,G,]2) z2 | ([G,,G,]2 [E,,E,]2) z2 | ([G,,G,]2 .E,).E,.E,.E, | (E,2 C,2) [CE]2 | %4
 [G,DF]4 [CE]2 | [G,DF]4 [CE]2 | [G,DF]2 [G,DF]2 [G,DF]2 | [CE]2 z2 z2 :: %8
 (!2!!1![G,B,]2 !3!!1![^F,A,]2 [D,F,]2) | [G,B,]4 z2 | ([G,B,]2 [^F,A,]2 [D,F,]2) | [G,B,]4 [CE]2 | %12
 [G,DF]4 [CE]2 | [G,DF]4 [CE]2 | [G,DF]2 [G,DF]2 [G,DF]2 | [CE]2 z2 z2 :: %16
[K:F][M:3/4]"^dolce" F,CA,CA,C | G,CB,CB,C | C,B,G,B,G,B, | F,CA,CA,C | F,CA,CA,C | G,CB,CB,C | %22
 C,B,G,B,G,B, | !3!F,A,CA, F,2 :: F,B,DFDB, | F,A,CFCA, | F,B,DFDB, | F,A,CFCA, | F,CG,CB,C | %29
 F,CA,CA,C | C,B,G,B,G,B, | !5!!3![F,A,]FCA, F,2 :|[K:C][M:3/4] [C,,C,]2 z2 z (3(!4!G,,/A,,/B,,/ | %33
 .C,2) .[C,,C,]2 .[C,,C,]2 | [C,,C,]2 z2 z (3(G,,/A,,/B,,/ | .C,2) .[C,,C,]2 .[C,,C,]2 | %36
 [C,,C,]2 z2 z (3(G,,/A,,/B,,/ | .C,2) .!4!E,2 .G,2 | .C2 .[C,,C,]2 .[E,,E,]2 | %39
 .[G,,G,]2 .[G,,,G,,]2 z2 | [G,,G,]2 [G,B,D]2 [G,B,D]2 | [G,,G,]2 [G,B,D]2 [G,B,D]2 | %42
 [G,,G,]2 [G,B,D]2 [G,B,D]2 | [G,,G,]2 [G,B,D]2 [G,B,D]2 | [G,,G,]2 [G,B,D]2 [G,B,D]2 | %45
 [G,B,D]2 z2 z2 | z6 | z6 | z6 |"^dolce" z2 [G,C]2 [G,C]2 | z2 [G,B,]2 [G,B,]2 | %51
 z2 [G,B,]2 [G,B,]2 | z2 [G,C]2 [G,C]2 | z2 [E,G,C]2 [E,G,C]2 | z2 [G,B,]2 [G,B,]2 | %55
 z2 [G,B,]2 [G,B,]2 | [C,G,C]2[K:treble] [CEG]2 [CEG]2 | [FA]C[FA]C[FA]C | [EG]C[EG]C[EG]C | %59
 [FA]C[FA]C[FA]C | [EG]C[EG]C[EG]C |[K:bass] [G,,G,]2 [G,,G,]2 [G,,G,]2 | [C,C]2 [C,C]2 [C,C]2 | %63
 [G,,G,]2 [G,,G,]2 [G,,G,]2 | C,E,G,CC,C | A,CA,CF,C | E,CE,CG,C | A,CA,CF,C | E,CE,CG,C | %69
 G,,G,G,,G,G,,G, | C,CC,CC,C | G,,G,G,,G,G,,G, | [C,,C,]2 !2!E,2 G,2 | E,2 !4!C,2 [G,,,G,,]2 | %74
 [C,,C,]2 E,2 G,2 | E,2 C,2 [G,,,G,,]2 | [C,,C,]2 [C,,C,]2 [E,,E,]2 | [G,,G,]2 [E,,E,]2 [G,,G,]2 | %78
 [C,C]2 [C,C]2 [E,C]2 | [G,C]2 [E,C]2 [G,C]2 | [C,C]2[K:treble]!p! [CEG]2"^dolce" [CEG]2 | %81
 [CEG]2 [CEG]2 [CEG]2 | [CEG]2 [CEG]2 [CEG]2 | [CEG]2 z2 z2 |] %84
V:3
 x6 | x6 | x6 | x6 | x6 | x6 | x6 | x6 :: x6 | d4 x2 | x6 | d4 x2 | x6 | x6 | x6 | x6 :: %16
[K:F][M:3/4] x6 | x6 | x6 | x6 | x6 | x6 | x6 | x6 :: x6 | x6 | x6 | x6 | x6 | x6 | x6 | x6 :| %32
[K:C][M:3/4] x6 | x6 | x6 | x6 | x6 | x6 | x6 | x6 | x6 | x6 | x6 | x6 | x6 | x6 | x6 | x6 | x6 | %49
 !1!E6 | !1!F6 | F6 | !1!E4 z2 | G6 | !1!F6 | F6 | x6 | c6 | c6 | c6 | c6 | x6 | x6 | x6 | x6 | %65
 !1!c6 | c6 | c6 | c6 | x6 | x6 | x6 | x6 | x6 | x6 | x6 | x6 | x6 | x6 | x6 | x6 | x6 | x6 | x6 |] %84
V:4
 x6 | x6 | x6 | x6 | x6 | x6 | x6 | x6 :: x6 | x6 | x6 | x6 | x6 | x6 | x6 | x6 :: %16
[K:F][M:3/4] !5!F,6 | !5!G,6 | !5!C,6 | !3!F,6 | !5!F,6 | !4!G,6 | !5!C,6 | x6 :: F,6 | F,6 | F,6 | %27
 F,6 | F,6 | F,6 | C,6 | x6 :|[K:C][M:3/4] x6 | x6 | x6 | x6 | x6 | x6 | x6 | x6 | x6 | x6 | x6 | %43
 x6 | x6 | x6 | x6 | x6 | x6 | C,6 | C,6 | C,6 | C,6 | C,6 | C,6 | C,6 | x2[K:treble] x4 | x6 | %58
 x6 | x6 | x6 |[K:bass] x6 | x6 | x6 | C,4 C,2 | C,6 | C,6 | C,6 | C,6 | x6 | x6 | x6 | x6 | x6 | %74
 x6 | x6 | x6 | x6 | x6 | x6 | x2[K:treble] x4 | x6 | x6 | x6 |] %84

